X:1
T:Fuge
T:Fuge
T:BWV 952
T:Johann Sebastian Bach
C:Johann Sebastian Bach
%%score 1 2 3
L:1/8
Q:1/8=192
M:4/4
K:C
V:1 treble 
V:2 treble 
V:3 bass 
V:1
 x8 | x4 z/ d/e/f/ g/d/c/d/ | B/e/d/e/ c/d/B/c/ A/d/c/d/ B/c/A/B/ | G4- G_BAG | FAGF E/G/A/B/ c2- | %5
 c/^F/G/A/ B2- B/E/F/G/ A2- | A/D/E/^F/ G2- G/G/F/E/ F2 | G2 z2 x4 | x8 | x8 | %10
 x4 z/ g/a/b/ c'/g/f/g/ | e/a/g/a/ f/g/e/f/ d/g/f/g/ e/f/d/e/ | ^c2- c/A/d- d/d/c/B/ c/A/d/e/ | %13
 f2- f/A/d/f/ e2- e/e/f/g/ | a/f/e/f/ d/b/a/b/ ^g/B/c/d/ e/A/=G/A/ | %15
 F/d/c/d/ B/c/A/B/^GE z/ E/^F/G/ | A2 A2- A^GAB | c4- cBcd | e4- e^de^f | g4- g/e/^d/e/ c'b | %20
 a^fba g/e/^d/e/ c/e/B/e/ | A/e/c/e/ B/e/A/e/ G/e/^d/e/ A/e/G/e/ | ^F/G/A/c/ B/A/G/F/ G2 z G | %23
 G_B- B/B/A/G/ F2 z F | FA- A/A/G/F/ E2 z G | _Bd- d/d/c/B/ A/c/d/e/ f/c/B/c/ | %26
 A/d/c/d/ _B/c/A/B/ G/c/B/c/ A/B/G/A/ | F2 z2 z/ F/E/F/ D/E/C/D/ | B,DGF E2 z/ G/A/B/ | c4- cBcd | %30
 e/d/e/f/ g/e/d/e/ g/^c/d/e/ f2- | f/B/c/d/ e2- e/A/B/c/ d2- | d/G/A/B/ c2- c/c/B/A/ (B2 | %33
 !fermata!c8) |] %34
V:2
 z/ G/A/B/ c/G/F/G/ E/A/G/A/ F/G/E/F/ | D/G/F/G/ E/F/D/E/ CcBA | GFEG FEDF | EFED C4- | %4
 C3 B, C/ z/ z z/ G/^F/E/ | D2 z/ E/D/E/ C2 z/ D/C/D/ | B,2 z/ C/B,/C/ A,2 z/ D/B,/D/ | %7
 B,2 z2 z/ D/E/^F/ G/D/C/D/ | B,/E/D/E/ C/D/B,/D/ A,/D/C/D/ B,/C/A,/B,/ | %9
 G,/G/=F/G/ E/F/D/E/ C/c/_B/c/ A/B/G/A/ | F/f/e/f/ d/e/c/d/ =BA G2- | GEAG FD G2- | %12
 G/G/F/E/ F>D E4- | E/E/D/^C/ D2- D/D/C/B,/ C2- | CA, D2- D^G, =C2- | C^F,^G,A, B,2 z2 | %16
 z C=FE DB, E2- | EEAG FD G2- | GGcB A^F B2- | B/B/^c/^d/ e/B/A/B/ G/=c/B/c/ A/B/G/A/ | %20
 ^F/B/A/B/ G/A/F/G/ EGAG | ^FAGF E4- | E3 ^D E2 z E | EG ^C2 D2 z D | DF B,2 C2 z E | %25
 G_B E2 F2 z2 | x8 | z/ G,/A,/B,/ C/G,/F,/G,/ E,/A,/G,/A,/ F,/G,/E,/F,/ | %28
 D,/G,/F,/G,/ E,/F,/D,/E,/ C,/B,/C/D/ E2- | EEAG FDEF | G2 z/ c/B/c/ A2 z/ B/A/B/ | %31
 G2 z/ A/G/A/ F2 z/ G/F/G/ | E2 z/ A/G/A/ D2 z/ G/F/G/ | !fermata!E8 |] %34
V:3
 x8 | x8 | x8 | z/ G,/A,/B,/ C/G,/F,/G,/ E,/A,/G,/A,/ F,/G,/E,/F,/ | %4
 D,/G,/F,/G,/ E,/F,/D,/E,/ E,B,A,G, | ^F,D,G,F, E,G,F,D, | G,^F,E,D, C,A,,D,D,, | %7
 G,,/D,/E,/^F,/ G,/D,/C,/D,/ B,,C,B,,A,, | G,,B,,E,D, C,A,,D,C, | B,,D,G,F, E,G,C_B, | %10
 A,CFE F2 ED | C4- C2 _B,2 | A,8- | A,4 ^G,2 A,=G, | F,3 F, E,3 C, | %15
 D,2 z2 z/ E,/^F,/^G,/ A,/E,/D,/E,/ | C,/=F,/E,/F,/ D,/E,/C,/D,/ B,,/E,/D,/E,/ C,/D,/B,,/C,/ | %17
 A,,/A,/G,/A,/ F,/G,/E,/F,/ D,/G,/F,/G,/ E,/F,/D,/E,/ | %18
 C,/C/B,/C/ A,/B,/G,/A,/ ^F,/B,/A,/B,/ G,/A,/F,/G,/ | E,2 z2 E4- | E2 ^D2 E4- | E4- EG,CB, | %22
 A,^F, B,2 E,/F,/G,/A,/ B,/G,/E,/G,/ | ^C,/A,/E,/C,/ A,,/G,/F,/E,/ D,/E,/F,/G,/ A,/F,/D,/F,/ | %24
 B,,/G,/D,/B,,/ G,,/F,/E,/D,/ C,/D,/E,/F,/ G,/E,/C,/E,/ | %25
 G,,/C,/G,,/E,,/ C,,/_B,,/A,,/G,,/ F,,2 z/ C,/D,/E,/ | F,D,G,F, E,C,F,E, | D,C,/B,,/ A,,B,, C,4- | %28
 C,2 B,,2 C,/G,,/A,,/B,,/ C,/G,,/F,,/G,,/ | %29
 E,,/A,,/G,,/A,,/ F,,/G,,/E,,/F,,/ D,,/G,,/F,,/G,,/ E,,/F,,/D,,/F,,/ | C,,2 z E, ^C,A,,D,=C, | %31
 B,,G,,C,B,, A,,D,B,,G,, | C,B,,A,,E,, F,,D,,G,,G,, | !fermata!C,,8 |] %34

